images/Log-in.svg

<svg width="16" height="16" viewBox="0 0 16 16" fill="none" xmlns="http://www.w3.org/2000/svg">
<path fill-rule="evenodd" clip-rule="evenodd" d="M9 1.66667C9 1.29848 9.29848 1 9.66667 1H12.3333C12.8638 1 13.3725 1.21071 13.7475 1.58579C14.1226 1.96086 14.3333 2.46957 14.3333 3V12.3333C14.3333 12.8638 14.1226 13.3725 13.7475 13.7475C13.3725 14.1226 12.8638 14.3333 12.3333 14.3333H9.66667C9.29848 14.3333 9 14.0349 9 13.6667C9 13.2985 9.29848 13 9.66667 13H12.3333C12.5101 13 12.6797 12.9298 12.8047 12.8047C12.9298 12.6797 13 12.5101 13 12.3333V3C13 2.82319 12.9298 2.65362 12.8047 2.5286C12.6797 2.40357 12.5101 2.33333 12.3333 2.33333H9.66667C9.29848 2.33333 9 2.03486 9 1.66667ZM5.86189 3.86193C6.12224 3.60158 6.54435 3.60158 6.8047 3.86193L10.1338 7.19103C10.1509 7.20785 10.1671 7.22559 10.1824 7.24416C10.2142 7.28296 10.2411 7.32451 10.2628 7.36795C10.3079 7.45781 10.3333 7.55927 10.3333 7.66667C10.3333 7.77529 10.3074 7.87785 10.2613 7.96846C10.241 8.00841 10.2164 8.04675 10.1876 8.08278C10.1708 8.10378 10.1527 8.12375 10.1335 8.14256L6.8047 11.4714C6.54435 11.7318 6.12224 11.7318 5.86189 11.4714C5.60154 11.2111 5.60154 10.7889 5.86189 10.5286L8.05715 8.33333H1.66667C1.29848 8.33333 1 8.03486 1 7.66667C1 7.29848 1.29848 7 1.66667 7H8.05715L5.86189 4.80474C5.60154 4.54439 5.60154 4.12228 5.86189 3.86193Z" fill="#2D3440"/>
</svg>

<svg xmlns="http://www.w3.org/2000/svg" width="16" height="16" fill="none"><path fill="#2D3440" fill-rule="evenodd" d="M9 1.667C9 1.298 9.298 1 9.667 1h2.666a2 2 0 0 1 2 2v9.333a2 2 0 0 1-2 2H9.667a.667.667 0 1 1 0-1.333h2.666a.666.666 0 0 0 .667-.667V3a.666.666 0 0 0-.667-.667H9.667A.667.667 0 0 1 9 1.667ZM5.862 3.862c.26-.26.682-.26.943 0l3.329 3.329a.69.69 0 0 1 .129.177.664.664 0 0 1-.13.775L6.806 11.47a.667.667 0 1 1-.943-.942l2.195-2.196h-6.39a.667.667 0 1 1 0-1.333h6.39L5.862 4.805a.667.667 0 0 1 0-.943Z" clip-rule="evenodd"/></svg>
